X:1
T: Miss Whiteford
C:
R:Reel
Q: 232
K:Bb
M:4/4
L:1/8
|:d|B2 FD FG Bg|fd cB cG Gd|B2 FD FG Bg|fd cd B1/2B1/2B Bd|
B2 FD FG Bg|fd cB cG Gd|B2 FD FG Bg|fd cd B1/2B1/2B Bg|
fg1/2a1/2 bg fd cB|ec dB cB Gg|fg1/2a1/2 bf gb fd|cB cd BB1/2B1/2 Bg|
fg1/2a1/2 bg fd cB|ec dB cB Gc|BG FD FG Bg|fd cd B1/2B1/2B B:|
